X:532321 F:http://www.vwml.org/record/HAM/5/32/32%%VWML:HAM-5-32-32-0 T:Poor Sally Sat A-weeping
S:Mrs Marina Russell, Upwey coll. HED Hammond
O:England
A:Dorset
N:Transcribed from HAM-05-083.gif
F:HAM-05-32-32.abc
Z:EFDSS;PJHeadford
%%stretchlast 0
M:C
L:1/4
Q:2/4=50
K:Ab
E|FF/G/ A/B/|cce|=dcB|(cB)G|FF/G/ A/ B/|cce| dcB|c2c|fc/=d/e|=dBf&xxc/=d/|eG>A&exx|B/A/FE|FFf| feG|B/!segno!=A/FF&xx=E|F2||
W:Transcribed from HAM-05-083.gif - for notes, see HAM-05-32-32.rtf
